X:1
T:Awake, All Who Sleep
T:11 9 11 9 11 11 ONTWAAK www.hymnary.org/text/awake_all_who_sleep
T:Tune: Johannes G. Bastiaans, 1868 Text under copyright; for copyrighted material see Psalter Hymnal 537
T:Awake, All Who Sleep
T:This tune is in the public domain. You may freely use this score for personal and congregational worship. If you reproduce the score, please credit Hymnary.org as the source. 
T:This tune is in the public domain. You may freely use this score for personal and congregational worship. If you reproduce the score, please credit Hymnary.org as the source. 
T:This tune is in the public domain. You may freely use this score for personal and congregational worship. If you reproduce the score, please credit Hymnary.org as the source. 
Z:This tune is in the public domain. You may freely use this score for personal and congregational worship. If you reproduce the score, please credit Hymnary.org as the source.
%%score ( 1 2 ) ( 3 4 )
L:1/8
M:6/4
K:C
V:1 treble nm="SOPRANO ALTO" snm="S. A."
V:2 treble 
V:3 bass nm="TENOR BASS" snm="T. B."
V:4 bass 
V:1
 C2 | G2 E2 A2 G2 E2 C2 | D2 G2 F2 E4 | G2 | c2 B2 A2 d2 B2 G2 | A6 G4 | C2 | E2 F2 G2 A2 F2 E2 | %8
 D2 G2 F2 E4 |1 G2 | c2 B2 A2 d2 B2 G2 | A6 G4 ||"^Page 2" c2 | c2 B2 A2 G2 E2 F2 | %14
 G2 F2"^Awake, All Who Sleep" E2 D4 | E2 | C2 E2 G2 G2 F2 E2 | D2 C2 B,2 C4 x2 |] %18
V:2
 G,2 | C2 C2 C2 B,2 G,2 A,2 | D2 C2 B,2 C4 | C2 | C2 D2 E2 D2 D2 B,2 | (E2 D2 C2) B,4 | C2 | %7
 C2 D2 E2 F2 C2 C2 | C2 B,2 D2 C4 |1 B,2 | C2 D2 E2 D2 D2 ^C2 | (D4 =C2) B,4 || E2 | %13
 E2 E2 F2 E2 E2 C2 | C2 C2 C2 B,4 | G,2 | A,2 C2 D2 C2 C2 C2 | A,2 G,2 G,2 G,4 x2 |] %18
V:3
 E,2 | E,2 G,2 F,2 D,2 C,2 E,2 | A,2 E,2 F,2 G,4 | E,2 | E,2 G,2 E,2 G,2 G,2 G,2 | (G,2 ^F,4) G,4 | %6
 E,2 | A,2 A,2 C2 C2 A,2 G,2 | G,2 D,2 G,2 G,4 |1 G,2 | E,2 G,2 E,2 G,2 G,2 G,2 | (G,2 ^F,4) G,4 || %12
 G,2 | A,2 G,2 C2 C2 B,2 A,2 | G,2 A,2 G,2 G,4 | E,2 | E,2 A,2 B,2 G,2 A,2 G,2 | %17
 F,2 E,2 D,2 E,4 x2 |] %18
V:4
 C,2 | C,2 C,2 F,,2 G,,2 C,2 A,,2 | F,2 E,2 D,2 C,4 | C,2 | A,,2 B,,2 C,2 B,,2 G,,2 E,2 | %5
 (C,2 D,4) G,,4 | C,2 | A,,2 D,2 C,2 F,2 F,,2 C,2 | G,,2 G,,2 B,,2 C,4 |1 G,,2 | %10
 A,,2 B,,2 C,2 B,,2 G,,2 E,2 | D,6 G,4 || C,2 | A,,2 E,2 F,2 C,2 G,2 F,2 | E,2 F,2 C,2 G,,4 | C,2 | %16
 A,,2 A,2 G,2 E,2 F,2 C,2 | F,,2 G,,2 G,,2 C,4 x2 |] %18

